vendor/shopware/storefront/Resources/app/storefront/dist/assets/icon/default/view-compact.svg

<svg xmlns="http://www.w3.org/2000/svg" width="24" height="24" viewBox="0 0 24 24">
  <path fill="#758CA3" fill-rule="evenodd" d="M23,1 C23.5522847,1 24,1.44771525 24,2 C24,2.55228475 23.5522847,3 23,3 L1,3 C0.44771525,3 0,2.55228475 0,2 C0,1.44771525 0.44771525,1 1,1 L23,1 Z M23,5 C23.5522847,5 24,5.44771525 24,6 C24,6.55228475 23.5522847,7 23,7 L1,7 C0.44771525,7 0,6.55228475 0,6 C0,5.44771525 0.44771525,5 1,5 L23,5 Z M23,9 C23.5522847,9 24,9.44771525 24,10 C24,10.5522847 23.5522847,11 23,11 L1,11 C0.44771525,11 0,10.5522847 0,10 C0,9.44771525 0.44771525,9 1,9 L23,9 Z M23,13 C23.5522847,13 24,13.4477153 24,14 C24,14.5522847 23.5522847,15 23,15 L1,15 C0.44771525,15 0,14.5522847 0,14 C0,13.4477153 0.44771525,13 1,13 L23,13 Z M23,17 C23.5522847,17 24,17.4477153 24,18 C24,18.5522847 23.5522847,19 23,19 L1,19 C0.44771525,19 0,18.5522847 0,18 C0,17.4477153 0.44771525,17 1,17 L23,17 Z M23,21 C23.5522847,21 24,21.4477153 24,22 C24,22.5522847 23.5522847,23 23,23 L1,23 C0.44771525,23 0,22.5522847 0,22 C0,21.4477153 0.44771525,21 1,21 L23,21 Z"/>
</svg>

<svg xmlns="http://www.w3.org/2000/svg" width="24" height="24" viewBox="0 0 24 24"><path fill="#758CA3" fill-rule="evenodd" d="M23 1c.5523 0 1 .4477 1 1s-.4477 1-1 1H1c-.5523 0-1-.4477-1-1s.4477-1 1-1h22zm0 4c.5523 0 1 .4477 1 1s-.4477 1-1 1H1c-.5523 0-1-.4477-1-1s.4477-1 1-1h22zm0 4c.5523 0 1 .4477 1 1s-.4477 1-1 1H1c-.5523 0-1-.4477-1-1s.4477-1 1-1h22zm0 4c.5523 0 1 .4477 1 1s-.4477 1-1 1H1c-.5523 0-1-.4477-1-1s.4477-1 1-1h22zm0 4c.5523 0 1 .4477 1 1s-.4477 1-1 1H1c-.5523 0-1-.4477-1-1s.4477-1 1-1h22zm0 4c.5523 0 1 .4477 1 1s-.4477 1-1 1H1c-.5523 0-1-.4477-1-1s.4477-1 1-1h22z"/></svg>
